svgs/1F9E0.svg

<svg xmlns="http://www.w3.org/2000/svg" xmlns:xlink="http://www.w3.org/1999/xlink" preserveAspectRatio="none" viewBox="0 0 72 72"><defs><g id="a"><path fill="#D65770" d="M29.75 55.55l-.4.2q1.774 2.014 6.45 3.5 4.5 7.05 13.5 6.05 6.908-.747 9.8-6.5 1.018-1.93 1.55-4.45-3.25-.25-4.95-1.75-5.6-.3-10.85-2.1-8.45 4.5-15.1 5.05z"/><path fill="#FFB0B0" d="M55 11.4q-4.55-4.45-10.95-2.75-7.3-4-17.7 0-3.85-.5-5.55 1.3-5.35.2-10.7 4.85-2.9.9-4.25 4.75-1.75 1.1-2.75 5.55-1.6 1.5-1.65 5.2Q-.2 38.25 3.1 41.85q1.7 4.95 7.8 5.2 1.4 1.9 3.75 2 .55 3.05 2.6 4.95 5.9 4.5 12.1 1.75l.4-.2q6.65-.55 15.1-5.05 5.25 1.8 10.85 2.1 1.7 1.5 4.95 1.75 3.5 1.6 5.1-2.2 1.85-1.7 2.9-3.7 1.5-3.1 1.1-6.85 2.85-7.2 0-10.75.65-2.65-1.3-3.9Q67.75 20.8 62 18q-1.8-4.65-7-6.6m-1.4 7.3l1.05-2.9-1.05 2.9q4.7.65 4.85 7.1-.15-6.45-4.85-7.1-1.7-.25-4.05.3 2.35-.55 4.05-.3m-13 5.5q.15-9.4 6.6-12.55-6.45 3.15-6.6 12.55m16.15 13.75q-.75-1.55 0-3.55-.75 2 0 3.55 2.4.3 4.4 4.1 1.2 2.25 1.1 6.4.1-4.15-1.1-6.4-2-3.8-4.4-4.1-4.5.8-5.6 4.45-5.05-3.15-7.95-2.45-1.1 2.5-3.4 2.85-2.4.3-3.3-1.45-1.8 2.05-4.35 3.2-3.1 1.4-7.15-.85-1.3 2.5-4.8 3.2 3.5-.7 4.8-3.2 4.05 2.25 7.15.85 2.55-1.15 4.35-3.2.9 1.75 3.3 1.45 2.3-.35 3.4-2.85 2.9-.7 7.95 2.45 1.1-3.65 5.6-4.45m-8.15-5.5q.9-3.9 5.25-4.7 6.7-1.1 10.3 3.6Q66.5 34.6 66 40.3q-.15 1.7.95 2.95Q65.85 42 66 40.3q.5-5.7-1.85-8.95-3.6-4.7-10.3-3.6-4.35.8-5.25 4.7-5.1-1.7-9.35.25-2.8 1.25-9.35 5.15-.55-1.65-3.7-1.45-4.35.35-7.45 3.25-1.4 1.45-2.35 3.35.95-1.9 2.35-3.35 3.1-2.9 7.45-3.25 3.15-.2 3.7 1.45 6.55-3.9 9.35-5.15 4.25-1.95 9.35-.25M23.15 17q4.15-7.5 12.4-5.05Q27.3 9.5 23.15 17 19 11.75 13.6 15.5q5.4-3.75 9.55 1.5M7.05 41.15q1.75 4.55 6.2 3.7-4.45.85-6.2-3.7m1.35-12.5q-.2-6.15 3-12-3.2 5.85-3 12m9.05 8.3q-4.8-4.2-1.7-17.65-3.1 13.45 1.7 17.65m9.9-19.15q-3.4 10.9-1 16.35-2.4-5.45 1-16.35m8.15-4.05q-3.25 8.1-2.85 13.75-.4-5.65 2.85-13.75m-9.25 36.8q3.4-1.1 6.25-.35 1.85-1.1 4-2.25 2.5.35 4.1 1.3-1.6-.95-4.1-1.3-2.15 1.15-4 2.25-2.85-.75-6.25.35z"/></g><path id="c" fill="#F46485" d="M8.95 69.4q6.9-.75 9.85-6.45-8.3-2.45-13.7-.9-5.45 1.55-9.65 1.3 4.5 7.05 13.5 6.05z"/><path id="b" fill="none" stroke="#F48F9D" stroke-linecap="round" stroke-linejoin="round" stroke-width="1.5" d="M49.55 19q2.35-.55 4.05-.3l1.05-2.9M40.6 24.2q.15-9.4 6.6-12.55m-27 35.25q3.5-.7 4.8-3.2 4.05 2.25 7.15.85 2.55-1.15 4.35-3.2.9 1.75 3.3 1.45 2.3-.35 3.4-2.85 2.9-.7 7.95 2.45 1.1-3.65 5.6-4.45-.75-1.55 0-3.55M16.4 43q.95-1.9 2.35-3.35 3.1-2.9 7.45-3.25 3.15-.2 3.7 1.45 6.55-3.9 9.35-5.15 4.25-1.95 9.35-.25.9-3.9 5.25-4.7 6.7-1.1 10.3 3.6Q66.5 34.6 66 40.3q-.15 1.7.95 2.95m-10.2-5.3q2.4.3 4.4 4.1 1.2 2.25 1.1 6.4M53.6 18.7q4.7.65 4.85 7.1M13.6 15.5q5.4-3.75 9.55 1.5 4.15-7.5 12.4-5.05m-28.5 29.2q1.75 4.55 6.2 3.7M8.4 28.65q-.2-6.15 3-12m6.05 20.3q-4.8-4.2-1.7-17.65m11.6-1.5q-3.4 10.9-1 16.35m9.15-20.4q-3.25 8.1-2.85 13.75m-6.4 23.05q3.4-1.1 6.25-.35 1.85-1.1 4-2.25 2.5.35 4.1 1.3"/></defs><g><use xlink:href="#a"/><use xlink:href="#b"/></g><use transform="translate(40.35 -4.1)" xlink:href="#c"/></svg>

<svg xmlns="http://www.w3.org/2000/svg" version="1.1" xmlns:xlink="http://www.w3.org/1999/xlink" preserveAspectRatio="none" x="0px" y="0px" width="72px" height="72px" viewBox="0 0 72 72">
<defs>
<g id="Layer0_0_FILL">
<path fill="#D65770" stroke="none" d="
M 29.75 55.55
Q 29.55 55.65 29.35 55.75 31.12421875 57.7638671875 35.8 59.25 40.3 66.3 49.3 65.3 56.2080078125 64.553125 59.1 58.8 60.118359375 56.869140625 60.65 54.35 57.4 54.1 55.7 52.6 50.1 52.3 44.85 50.5 36.4 55 29.75 55.55 Z"/>

<path fill="#FFB0B0" stroke="none" d="
M 55 11.4
Q 50.45 6.95 44.05 8.65 36.75 4.65 26.35 8.65 22.5 8.15 20.8 9.95 15.45 10.15 10.1 14.8 7.2 15.7 5.85 19.55 4.1 20.65 3.1 25.1 1.5 26.6 1.45 30.3 -0.2 38.25 3.1 41.85 4.8 46.8 10.9 47.05 12.3 48.95 14.65 49.05 15.2 52.1 17.25 54 23.15 58.5 29.35 55.75 29.55 55.65 29.75 55.55 36.4 55 44.85 50.5 50.1 52.3 55.7 52.6 57.4 54.1 60.65 54.35 64.15 55.95 65.75 52.15 67.6 50.45 68.65 48.45 70.15 45.35 69.75 41.6 72.6 34.4 69.75 30.85 70.4 28.2 68.45 26.95 67.75 20.8 62 18 60.2 13.35 55 11.4
M 53.6 18.7
L 54.65 15.8 53.6 18.7
Q 58.3 19.35 58.45 25.8 58.3 19.35 53.6 18.7 51.9 18.45 49.55 19 51.9 18.45 53.6 18.7
M 40.6 24.2
Q 40.75 14.8 47.2 11.65 40.75 14.8 40.6 24.2
M 56.75 37.95
Q 56 36.4 56.75 34.4 56 36.4 56.75 37.95 59.15 38.25 61.15 42.05 62.35 44.3 62.25 48.45 62.35 44.3 61.15 42.05 59.15 38.25 56.75 37.95 52.25 38.75 51.15 42.4 46.1 39.25 43.2 39.95 42.1 42.45 39.8 42.8 37.4 43.1 36.5 41.35 34.7 43.4 32.15 44.55 29.05 45.95 25 43.7 23.7 46.2 20.2 46.9 23.7 46.2 25 43.7 29.05 45.95 32.15 44.55 34.7 43.4 36.5 41.35 37.4 43.1 39.8 42.8 42.1 42.45 43.2 39.95 46.1 39.25 51.15 42.4 52.25 38.75 56.75 37.95
M 48.6 32.45
Q 49.5 28.55 53.85 27.75 60.55 26.65 64.15 31.35 66.5 34.6 66 40.3 65.85 42 66.95 43.25 65.85 42 66 40.3 66.5 34.6 64.15 31.35 60.55 26.65 53.85 27.75 49.5 28.55 48.6 32.45 43.5 30.75 39.25 32.7 36.45 33.95 29.9 37.85 29.35 36.2 26.2 36.4 21.85 36.75 18.75 39.65 17.35 41.1 16.4 43 17.35 41.1 18.75 39.65 21.85 36.75 26.2 36.4 29.35 36.2 29.9 37.85 36.45 33.95 39.25 32.7 43.5 30.75 48.6 32.45
M 23.15 17
Q 27.3 9.5 35.55 11.95 27.3 9.5 23.15 17 19 11.75 13.6 15.5 19 11.75 23.15 17
M 7.05 41.15
Q 8.8 45.7 13.25 44.85 8.8 45.7 7.05 41.15
M 8.4 28.65
Q 8.2 22.5 11.4 16.65 8.2 22.5 8.4 28.65
M 17.45 36.95
Q 12.65 32.75 15.75 19.3 12.65 32.75 17.45 36.95
M 27.35 17.8
Q 23.95 28.7 26.35 34.15 23.95 28.7 27.35 17.8
M 35.5 13.75
Q 32.25 21.85 32.65 27.5 32.25 21.85 35.5 13.75
M 26.25 50.55
Q 29.65 49.45 32.5 50.2 34.35 49.1 36.5 47.95 39 48.3 40.6 49.25 39 48.3 36.5 47.95 34.35 49.1 32.5 50.2 29.65 49.45 26.25 50.55 Z"/>
</g>

<g id="Layer0_1_FILL">
<path fill="#F46485" stroke="none" d="
M 8.95 69.4
Q 15.85 68.65 18.8 62.95 10.5 60.5 5.1 62.05 -0.35 63.6 -4.55 63.35 -0.05 70.4 8.95 69.4 Z"/>
</g>

<path id="Layer0_0_1_STROKES" stroke="#F48F9D" stroke-width="1.5" stroke-linejoin="round" stroke-linecap="round" fill="none" d="
M 49.55 19
Q 51.9 18.45 53.6 18.7
L 54.65 15.8
M 40.6 24.2
Q 40.75 14.8 47.2 11.65
M 20.2 46.9
Q 23.7 46.2 25 43.7 29.05 45.95 32.15 44.55 34.7 43.4 36.5 41.35 37.4 43.1 39.8 42.8 42.1 42.45 43.2 39.95 46.1 39.25 51.15 42.4 52.25 38.75 56.75 37.95 56 36.4 56.75 34.4
M 16.4 43
Q 17.35 41.1 18.75 39.65 21.85 36.75 26.2 36.4 29.35 36.2 29.9 37.85 36.45 33.95 39.25 32.7 43.5 30.75 48.6 32.45 49.5 28.55 53.85 27.75 60.55 26.65 64.15 31.35 66.5 34.6 66 40.3 65.85 42 66.95 43.25
M 56.75 37.95
Q 59.15 38.25 61.15 42.05 62.35 44.3 62.25 48.45
M 53.6 18.7
Q 58.3 19.35 58.45 25.8
M 13.6 15.5
Q 19 11.75 23.15 17 27.3 9.5 35.55 11.95
M 7.05 41.15
Q 8.8 45.7 13.25 44.85
M 8.4 28.65
Q 8.2 22.5 11.4 16.65
M 17.45 36.95
Q 12.65 32.75 15.75 19.3
M 27.35 17.8
Q 23.95 28.7 26.35 34.15
M 35.5 13.75
Q 32.25 21.85 32.65 27.5
M 26.25 50.55
Q 29.65 49.45 32.5 50.2 34.35 49.1 36.5 47.95 39 48.3 40.6 49.25"/>
</defs>

<g id="Camada_2">
<g transform="matrix( 1, 0, 0, 1, 0,0) ">
<use xlink:href="#Layer0_0_FILL"/>

<use xlink:href="#Layer0_0_1_STROKES"/>
</g>

<g transform="matrix( 1, 0, 0, 1, 40.35,-4.1) ">
<use xlink:href="#Layer0_1_FILL"/>
</g>
</g>
</svg>
